tools/download-figma-icons/icons/solid/plant-leaf.svg

<svg width="24" height="24" viewBox="0 0 24 24" fill="none" xmlns="http://www.w3.org/2000/svg">
<path fill-rule="evenodd" clip-rule="evenodd" d="M17.5192 6.65409C16.5442 8.22909 14.5867 10.0808 12.2242 12.1891C12.2092 12.2033 12.1942 12.2191 12.1792 12.2333C11.8942 12.4883 11.6092 12.7433 11.3167 13.0066L13.3192 12.5341C13.7175 12.4441 14.1225 12.6916 14.22 13.0966C14.31 13.5016 14.0625 13.8983 13.6575 13.9966L8.97674 15.0916C8.66924 15.3683 8.35424 15.6458 8.04674 15.9308C7.90499 16.0666 7.71749 16.1266 7.53674 16.1266C7.33424 16.1266 7.13174 16.0441 6.98924 15.8866C6.70424 15.5783 6.72674 15.1066 7.03499 14.8216C7.37924 14.5133 7.71749 14.2058 8.05424 13.8983C8.08424 13.8683 8.11424 13.8466 8.14424 13.8241C8.72924 13.2916 9.31499 12.7733 9.87749 12.2708C10.2367 11.9491 10.59 11.6408 10.935 11.3258V7.40409C10.935 6.99084 11.2642 6.65409 11.685 6.65409C12.0975 6.65409 12.435 6.99084 12.435 7.40409V9.97659C14.1525 8.40159 15.5325 7.01334 16.2367 5.86584C16.4542 5.51334 16.9192 5.40909 17.2717 5.62659C17.625 5.84409 17.7367 6.30084 17.5192 6.65409ZM22.3267 0.654091C22.2967 0.398341 22.1392 0.180841 21.9075 0.0690912C21.6742 -0.0359087 21.405 -0.0209087 21.1942 0.113341C19.4242 1.20834 16.3642 2.16909 12.7942 2.73834C4.86674 4.01334 2.73674 7.30584 2.35424 9.84159C1.76924 13.6291 3.79424 16.4041 4.75424 17.4608C2.62499 20.6708 3.12749 23.2816 3.14924 23.3933C3.22424 23.7541 3.53249 23.9933 3.88424 23.9933C3.92924 23.9933 3.98174 23.9858 4.02749 23.9791C4.43174 23.9041 4.69424 23.5066 4.61924 23.1016C4.60424 23.0116 4.25924 21.0458 5.87924 18.4816C6.68174 19.0508 8.18174 19.8308 10.3125 19.8308C11.1067 19.8308 11.9842 19.7191 12.9517 19.4558C15.0217 18.8791 17.8942 17.4166 19.7992 13.6891C23.1225 7.20084 22.3642 0.916591 22.3267 0.654091Z" fill="black"/>
</svg>

<svg xmlns="http://www.w3.org/2000/svg" width="24" height="24" fill="none" viewBox="0 0 24 24"><path fill="currentColor" fill-rule="evenodd" d="M17.52 6.654c-.976 1.575-2.933 3.427-5.296 5.535l-.045.044c-.285.255-.57.51-.862.774l2.002-.473a.76.76 0 0 1 .901.563.754.754 0 0 1-.562.9l-4.681 1.095c-.308.276-.623.554-.93.839a.73.73 0 0 1-.51.196.75.75 0 0 1-.502-1.305q.515-.463 1.02-.924c.03-.03.06-.051.09-.074.584-.532 1.17-1.05 1.732-1.553.36-.322.713-.63 1.058-.945V7.404c0-.413.33-.75.75-.75.412 0 .75.337.75.75v2.573c1.717-1.575 3.098-2.964 3.802-4.111a.75.75 0 0 1 1.035-.24.745.745 0 0 1 .247 1.028m4.807-6a.74.74 0 0 0-.42-.585.75.75 0 0 0-.713.044c-1.77 1.095-4.83 2.056-8.4 2.625C4.867 4.013 2.737 7.306 2.354 9.842c-.585 3.787 1.44 6.562 2.4 7.619-2.129 3.21-1.627 5.82-1.605 5.932a.745.745 0 0 0 .878.586.75.75 0 0 0 .592-.877c-.015-.09-.36-2.056 1.26-4.62.803.569 2.303 1.349 4.434 1.349.794 0 1.671-.112 2.639-.375 2.07-.577 4.942-2.04 6.847-5.767C23.122 7.201 22.364.917 22.327.654" clip-rule="evenodd"/></svg>
